X:19057
T:Xiraldilla (CT 341)
R:Xiraldilla
C:Tradicional
S:Msica Tradicional Asturiana, (C) Tello & Tito. Asturies, 2001.
S:http://pagina.de/MusTradAst <telloytito@asturies.org>
N:Xiraldilla, dictada por Catalina Muiz Llano, de cincuenta aos, de Llamo, ayuntamiento de Riosa.
O:Llamo (Riosa)
A:Asturies
Z:Cancioneru de Torner 341
M:3/8
L:1/8
Q:3/8=88
W:Algn da tena yo
W:buena silla y buen caballo,
W:y ahora me encuentro aqu
W:que si no me arimo me caigo.
W:
W:Ro, rigelo,
W:que vas por el suelo,
W:que vas recogiendo
W:la hoja y la flor:
W:anda, vete corriendo
W:a la habitacin
W:donde duerme y descansa
W:mi dulce amor,
W:donde descansa y duerme
W:mi corazn.
K:G
|: G2 A|B>AB|c2 B|A3|F2 G|A2 A|[1 DDD|G2 z :|[2 DDG|G2 z|
GGA|BBA|GGA|BBA|GGA|BBA|BcB|A3|
|: F2 G|AAA|DDB|B2 A|G3 :|
F2 G|AAA|DDB|B2 A|G2 z||
